svgs/sharp-light/grate.svg

<svg xmlns="http://www.w3.org/2000/svg" viewBox="0 0 448 512"><!--! Font Awesome Pro 6.6.0 by @fontawesome - https://fontawesome.com License - https://fontawesome.com/license (Commercial License) Copyright 2024 Fonticons, Inc. --><path d="M32 64l0 384 384 0 0-384L32 64zM0 32l32 0 384 0 32 0 0 32 0 384 0 32-32 0L32 480 0 480l0-32L0 64 0 32zM80 96l72 0 72 0 72 0 72 0 16 0 0 16 0 144 0 144 0 16-16 0-72 0-72 0-72 0-72 0-16 0 0-16 0-144 0-144 0-16 16 0zM96 240l40 0 0-112-40 0 0 112zm72 0l40 0 0-112-40 0 0 112zm72 0l40 0 0-112-40 0 0 112zm72 0l40 0 0-112-40 0 0 112zm0 32l0 112 40 0 0-112-40 0zm-32 0l-40 0 0 112 40 0 0-112zm-72 0l-40 0 0 112 40 0 0-112zm-72 0l-40 0 0 112 40 0 0-112z"/></svg>

<svg xmlns="http://www.w3.org/2000/svg" viewBox="0 0 448 512"><!--! Font Awesome Pro 6.4.2 by @fontawesome - https://fontawesome.com License - https://fontawesome.com/license (Commercial License) Copyright 2023 Fonticons, Inc. --><path d="M32 64V448H416V64H32zM0 32H32 416h32V64 448v32H416 32 0V448 64 32zM80 96h72 72 72 72 16v16V256 400v16H368 296 224 152 80 64V400 256 112 96H80zM96 240h40V128H96V240zm72 0h40V128H168V240zm72 0h40V128H240V240zm72 0h40V128H312V240zm0 32V384h40V272H312zm-32 0H240V384h40V272zm-72 0H168V384h40V272zm-72 0H96V384h40V272z"/></svg>
